core/assets/icons/home.filled.svg

<svg width="24" height="24" viewBox="0 0 24 24" xmlns="http://www.w3.org/2000/svg"><g id="home=filled" clip-path="url(#clip0_1286_245)"><g id="home"><path id="Subtract" fill-rule="evenodd" clip-rule="evenodd" d="M19 21C19.6 21 20 20.6 20 20V11H23L12.6 1.6C12.3 1.3 11.7 1.3 11.3 1.6L1 11H4V20C4 20.6 4.4 21 5 21H19ZM12 17L8.59999 13.6C7.69999 12.7 7.69999 11.3 8.59999 10.4C9.49999 9.49998 10.9 9.49998 11.8 10.4L12 10.6L12.2 10.4C13.1 9.49998 14.5 9.49998 15.4 10.4C16.3 11.3 16.3 12.7 15.4 13.6L12 17Z"/></g></g><defs><clipPath id="clip0_1286_245"><rect width="24" height="24"/></clipPath></defs></svg>

<svg xmlns="http://www.w3.org/2000/svg" width="24" height="24" fill="none"><g clip-path="url(#a)"><path fill="#191C22" fill-rule="evenodd" d="M19 21c.6 0 1-.4 1-1v-9h3L12.6 1.6c-.3-.3-.9-.3-1.3 0L1 11h3v9c0 .6.4 1 1 1h14Zm-7-4-3.4-3.4c-.9-.9-.9-2.3 0-3.2.9-.9 2.3-.9 3.2 0l.2.2.2-.2c.9-.9 2.3-.9 3.2 0 .9.9.9 2.3 0 3.2L12 17Z" clip-rule="evenodd"/></g><defs><clipPath id="a"><path fill="#fff" d="M0 0h24v24H0z"/></clipPath></defs></svg>
